X: 1
T: Leather Lake House
O: 1788
R: reel
Z: 2006 John Chambers <jc@trillian.mit.edu>
B: Peter Barnes "English Country Dance Tunes" V.2
M: C|
L: 1/16
K: A
|: "A"A4 cBAB | c2A2 e4 | "D"d2c2 B2A2 | "E7"G2A2 B2E2 \
|  "A"A4 cBAB | c2A2 e4 | "D"d2c2 B4   |  "A"A4 [A4A,4] :|
|: "A"a3b a2g2 | "F#m"f3g f2e2 | "Bm"d2c2 B2A2 | "E7"G2A2 B2E2 \
|  "A"a3b a2g2 | "F#m"f3g f2e2 | "Bm"d2c2 B2A2 | "E7"e2E2 "A"A4 :|
